X:1
T:Title
%%score { ( 1 3 ) | ( 2 4 ) }
L:1/8
Q:1/4=100
M:4/4
K:G
V:1 treble nm="Grand Piano"
V:3 treble 
V:2 treble 
V:4 treble 
V:1
 B2 AB d2 [DB][CA] | [B,G]2 [EG][^DA] [=DB]4 | z4 A2 z2 | [B,DG]6 z2 | B2 AB d2 [DB][CA] | %5
w: Wm.~J.~Kirkpatrick * * * * *|||||
 [B,G]2 [EG][^DA] [=DB]4 | z4 A2 z2 | [B,DG]6 z2 | [FA]2 [DF][EG] [FA]3 [Fd] | d^c[GB][Gc] [Fd]4 | %10
w: |||||
 A2 AA _B2 GG | D8 | d2 Bc d2 BA | z2 z B z4 |[M:17/16] [CE][Ec][DB]ADBB3/2A | %15
w: |||||
[M:9/8] [G,G]-[G,-=FG-][G,-EG-] [G,-^DG-] [G,=DG]2- [G,DG] z z |] %16
w: |
V:2
 [G,D]2 [G,C][G,D] [G,B,G]2[K:bass] [G,,G,][G,,G,] | [G,,G,]2 [G,,G,][G,,G,] [G,,G,]4 | %2
 z4 .[E,C]2 z2 | [G,,G,]6 z2 | [G,D]2 [G,C][G,D] [G,B,G]2[K:bass] [G,,G,][G,,G,] | %5
 [G,,G,]2 [G,,G,][G,,G,] [G,,G,]4 | z4 .[E,C]2 z2 | [G,,G,]6 z2 | %8
 [D,D]2 [D,A,][D,A,] [D,D]3 [D,A,] | [E,A,]2 [A,,A,][A,,A,] [D,A,]4 | %10
 [A,,A,]2 [A,,A,][A,,A,] [_B,,_B,]2 [G,,G,][G,,G,] | z2 A,G, F,4 | %12
 [G,B,G]2 [G,DG][G,DG] [G,B,G]2 [G,DG][G,CD] | .[G,B,D]2 [G,CF].[G,D=F][K:bass] [C,G,]4 | %14
[M:17/16] [C,G,]-<[C,G,][C,G,][C,G,C]B,D[D,F,D]3/2[D,CD] |[M:9/8] z DC- C B,2- B, z z |] %16
V:3
 x8 | x8 | [CE]2 [CF][DG] z EGF | x8 | x8 | x8 | [CE]2 [CF][DG] z EGF | x8 | x8 | G2 z2 z4 | x8 | %11
 z2 C_B, A,4 | x8 | GG .A>G, [Ec]4 |[M:17/16] x17/2 |[M:9/8] .[B,D]3 z3 z3 |] %16
V:4
 x6[K:bass] x2 | x8 | [C,G,]2 [A,,A,][B,,G,] C,-[C,C][D,B,D][D,A,D] | x8 | x6[K:bass] x2 | x8 | %6
 [C,G,]2 [A,,A,][B,,G,] C,-[C,C][D,B,D][D,A,D] | x8 | x8 | x8 | x8 | D,8 | x8 | x4[K:bass] x4 | %14
[M:17/16] z/ z/ z/ z/ z/ z/ z [D,G,]-<[D,G,] z/ z/ z/ z |[M:9/8] G,,6- G,, z z |] %16

